X:1
T:Title
L:1/8
Q:1/4=90
M:4/4
K:F
V:1 treble nm="Church Organ, Staff"
V:1
 D2 B2 AG A2 | ^F2 G2 =F2 E2 | E2 A2- A/ z/ A G2 | F2 E4 z2 | E2 F2 G_A A2 | G2 G2 _AB A2 | %6
w: By~Rev.~R.~F.~Smith * * * *||||||
 F2 F2 c2 B2 | _A2 G4 z2 |[Q:1/4=110] c>B A2 F2 D2 | B2 AG AB c2 | c2 c2 BA G2 | D2 E4 z2 | %12
w: ||||||
 c2 c2 AG F2 | F2 d2 BA G2 | c2 fc BA G2- | GF F6 |] %16
w: ||||

